X:1
T:Because He Was a Bonnie Lad -- Reel
R:reel
N:347
B:Ryan's Mammoth Collection
O:SCOTCH.
Z:Contributed by Ray Davies,  ray:davies99.freeserve.co.uk
M:C|
L:1/8
K:G
ud|\
v(B>A)Gg u(e/f/g) dB | c"4"edB A/A/A (Ad) | (B>A)Gg (e/f/g) dB | c"4"edB G/G/G (Gd) |
v(B>A)Gg u(e/f/g) dB | c"4"edB A/A/A (Ad) | v(B>A)Gg ue/f/g dB | c"4"edB G/G/G G |]
ud|\
vBAGB cd"4"ec | BGdB A/A/A (Ac) | vBAGB cdef | (g/f/e/f/) (gB) G/G/G (Gd) |
vBGdG "4"eGdG | BGdB A/A/A (Af) | vgefd "4"ecdB | c"4"edB G/G/G G |]
